src/img/icons/general/speech.svg

<svg width="44" height="32" viewBox="0 0 44 32" xmlns="http://www.w3.org/2000/svg">
    <g id="o-feedbackLogo" stroke="none" stroke-width="1" fill="none" fill-rule="evenodd">
        <path d="M31.1433088,26.7702396 L31.9029017,26.7702396 L34.0550816,28.8968474 L36.7136567,31.5238335 C36.8402556,31.6489281 36.9668544,31.7740227 37.0934532,31.7740227 C37.220052,31.7740227 37.3466508,31.8991173 37.4732496,31.8991173 C37.5998485,31.8991173 37.8530461,31.7740227 37.9796449,31.6489281 C38.1062437,31.398739 38.2328425,31.1485498 38.2328425,30.7732661 L38.2328425,25.0189155 C41.1446153,23.392686 43.0435976,20.8907945 43.0435976,18.0136192 C43.0435976,13.2600252 37.7264473,9.25699874 31.1433088,9.25699874 C30.2571171,9.25699874 29.3709254,9.38209332 28.4847337,9.50718789 L27.3453443,15.7619168 L20.3824094,19.2645649 L19.2430201,18.0136192 C19.2430201,22.7672131 24.5601704,26.7702396 31.1433088,26.7702396 Z" id="Shape" fill="#535353"></path>
        <path d="M14.9386603,0 C6.70973727,0 0.126598816,4.87868852 0.126598816,10.8832282 C0.126598816,14.510971 2.53197633,17.6383354 6.203342,19.6398487 L6.203342,26.8953342 C6.203342,27.2706179 6.32994082,27.6459016 6.45653963,27.8960908 C6.58313845,28.0211854 6.83633608,28.1462799 7.08953372,28.1462799 C7.21613253,28.1462799 7.46933016,28.0211854 7.59592898,28.0211854 C7.7225278,27.8960908 7.97572543,27.8960908 8.10232425,27.6459016 L11.3938935,24.3934426 L14.0524686,21.7664565 L15.0652591,21.7664565 C23.2941822,21.7664565 29.8773207,16.887768 29.8773207,10.8832282 C29.8773207,4.87868852 23.1675834,0 14.9386603,0 L14.9386603,0 Z M14.9386603,18.3889029 C8.73531833,18.3889029 3.54476686,14.8862547 3.54476686,11.0083228 C3.54476686,7.00529634 8.73531833,3.50264817 14.9386603,3.50264817 C21.1420023,3.50264817 26.3325538,7.00529634 26.3325538,10.8832282 C26.4591526,15.0113493 21.1420023,18.3889029 14.9386603,18.3889029 L14.9386603,18.3889029 Z" id="Shape" fill="#535353"></path>
    </g>
</svg>

<svg xmlns="http://www.w3.org/2000/svg" viewBox="0 0 44 32"><g fill="#535353" fill-rule="evenodd"><path d="M31.143 26.77h.76l2.152 2.127 2.659 2.627c.126.125.253.25.38.25.126 0 .253.125.38.125.126 0 .379-.125.506-.25.126-.25.253-.5.253-.876V25.02c2.912-1.626 4.81-4.128 4.81-7.005 0-4.754-5.317-8.757-11.9-8.757-.886 0-1.772.125-2.658.25l-1.14 6.255-6.963 3.503-1.139-1.251c0 4.753 5.317 8.756 11.9 8.756z"/><path d="M14.939 0C6.709 0 .127 4.879.127 10.883c0 3.628 2.405 6.755 6.076 8.757v7.255c0 .376.127.75.254 1.001.126.125.38.25.633.25.126 0 .38-.125.506-.125.127-.125.38-.125.506-.375l3.292-3.253 2.658-2.627h1.013c8.23 0 14.812-4.878 14.812-10.883C29.877 4.88 23.167 0 14.94 0zm0 18.389c-6.204 0-11.394-3.503-11.394-7.38 0-4.004 5.19-7.506 11.394-7.506 6.203 0 11.394 3.502 11.394 7.38.126 4.128-5.191 7.506-11.394 7.506z"/></g></svg>
